ion/male-female-sharp.svg

<svg viewBox="0 0 512 512" xmlns="http://www.w3.org/2000/svg"><path d="M330 16v44h42.89l-37.1 37.09v0C305.82 62.11 262.05 41.98 216 42c-87.12-.001-158 70.88-158 158 0 79.66 59.26 145.72 136 156.46V394h-50v44h50v58h44v-58h50v-44h-50v-37.54c76.74-10.74 136-76.8 136-156.46v0c.01-22.4-4.77-44.54-14-64.93l44-44V134h44V16ZM216 314v0c-62.97 0-114-51.04-114-114 0-62.97 51.03-114 114-114 62.96 0 114 51.03 114 114v0c-.08 62.93-51.07 113.92-114 114Z"/></svg>

<svg xmlns="http://www.w3.org/2000/svg" width="512" height="512" viewBox="0 0 512 512"><path d="M330,16V60h42.89l-37.1,37.09A157.67,157.67,0,0,0,216,42C128.88,42,58,112.88,58,200c0,79.66,59.26,145.72,136,156.46V394H144v44h50v58h44V438h50V394H238V356.46c76.74-10.74,136-76.8,136-156.46a157.23,157.23,0,0,0-14-64.93l44-44V134h44V16ZM216,314A114,114,0,1,1,330,200,114.13,114.13,0,0,1,216,314Z"/></svg>
